X: 1
T:the Kid on the Mountain
R:Slip jig
O:Ireland
M:9/8
K:Em
E3 FEF G2F|E2B BcA BGD|E2E FEF G2A|BAG FAG FED::
BGB AFA G2D|GAB dge dBA|\
BGB ABA G2A|BAG FAG FED::
gfg eBe e2f|gfg efg afd|\
gfg eBe g2a|bag fag fed::
eBB e2f g2f|eBB efg afd|\
eBB e2f g2a bag fag fed::
edB dBA G2D|GAB dge dBA|\
edB dBA G2A|BAG FAG FED:|
